X: 22
T: The Highland Spell
%R: reel
B: "Twenty Four Favourite Dances for the Year 1783", Thomas Straight, ed. p.11 #2
F: http://www.vwml.org/browse/browse-collections-dance-tune-books/browse-straights1783
Z: 2014 John Chambers <jc:trillian.mit.edu>
M: C|
L: 1/8
K: C
|:\
C2EG cGEC | C2EG FDB,G, |\
C2EG cGEC | ec GF E2C2 :|
|:\
g>age f>gfd | e>fec B/c/d F2 |\
G2GA Bcde | fagf e2c2 :|
% - - - - - - - - - - Dance description: - - - - - - - - - -
%%begintext align
%% Hands across half round back again .|. 1st &
%% 2d Cu change sides & back again :|. lead
%% down the middle up again & cast off .|:
%% right and left :|:
%%endtext

%%sep 1 1 500
%%sep 1 1 500
